X: 43141
T: Winnie Hayes'
R: jig
M: 6/8
K: Edorian
|BAF E3|FED E3|BAF EFG|FED FGA|
BAE E3|FED E2e|edB AB/c/d|edB A3:|:
Bcd e3|fed e2d|B2e eBe|f3 def|
g3 f3|edB e2f|edB AB/c/d|edB A3:|

